app/dist/common/images/bytes-technology-grp-plc.svg

<svg fill="none" height="18" viewBox="0 0 18 18" width="18" xmlns="http://www.w3.org/2000/svg"><path d="m0 0h18v18h-18z" fill="#f0f3fa"/><path d="m13.4923 11.2933c.0597-.2628.1952-.6508.1952-1.0433 0-1.45803-1.5628-2.25-2.8901-2.25-1.29506 0-3.48583.927-6.13313 3.5.85907 1.5282 2.47215 2.5 4.35333 2.5 1.9555 0 3.6464-1.0781 4.4747-2.7067z" fill="#50687b"/><path d="m4.57597 11.3572c.10212-.1172 2.86153-3.39434 2.86153-4.98415 0-.95031-.40091-1.3675-.9375-1.37305-.23957-.00248-.50618.08301-.77624.22955-1.05673.91926-1.72376 2.25678-1.72376 3.77044 0 .84545.2081 1.65901.57597 2.35721z" fill="#50687b"/><path d="m14 8.375c-.3361-2.44673-2.43-4.375-4.97049-4.375-.55068 0-1.09665.08828-1.59201.2515.6878 0 1.0625.75013 1.0625 1.35735 0 1.21669-.5 2.39115-.5 2.39115s.99934-1.5 3.0205-1.5c1.5794 0 2.6061 1.41873 2.9795 1.875z" fill="#01b3e3"/></svg>

<!-- by TradingView --><svg width="18" height="18" viewBox="0 0 18 18" fill="none" xmlns="http://www.w3.org/2000/svg">
<rect width="18" height="18" fill="#F0F3FA"/>
<path d="M13.4923 11.2933C13.552 11.0305 13.6875 10.6425 13.6875 10.25C13.6875 8.79197 12.1247 8 10.7974 8C9.50234 8 7.31157 8.927 4.66427 11.5C5.52334 13.0282 7.13642 14 9.0176 14C10.9731 14 12.664 12.9219 13.4923 11.2933Z" fill="#50687B"/>
<path d="M4.57597 11.3572C4.67809 11.24 7.4375 7.96286 7.4375 6.37305C7.4375 5.42274 7.03659 5.00555 6.5 5C6.26043 4.99752 5.99382 5.08301 5.72376 5.22955C4.66703 6.14881 4 7.48633 4 8.99999C4 9.84544 4.2081 10.659 4.57597 11.3572Z" fill="#50687B"/>
<path d="M14 8.375C13.6639 5.92827 11.57 4 9.02951 4C8.47883 4 7.93286 4.08828 7.4375 4.2515C8.1253 4.2515 8.5 5.00163 8.5 5.60885C8.5 6.82554 8 8 8 8C8 8 8.99934 6.5 11.0205 6.5C12.5999 6.5 13.6266 7.91873 14 8.375Z" fill="#01B3E3"/>
</svg>
